img/svg-dragon.svg

<svg width="16" height="19" viewBox="0 0 16 19" fill="none" xmlns="http://www.w3.org/2000/svg">
<path fill-rule="evenodd" clip-rule="evenodd" d="M8.74343 9.16061C8.86542 9.08622 8.96892 8.93034 9.05238 8.75709C10.1508 9.20603 10.9228 10.2669 10.9228 11.5041C10.9228 13.1476 9.56046 14.48 7.87999 14.48C7.19016 14.48 6.55393 14.2555 6.04357 13.8771C5.87616 13.7978 5.73841 13.7217 5.6257 13.6593C5.45087 13.5627 5.33623 13.4993 5.26444 13.5092C5.05459 13.5382 5.11552 13.7312 5.17089 13.9066C5.20847 14.0258 5.24352 14.1368 5.18927 14.1825C5.13253 14.2305 4.94873 14.0552 4.73396 13.8505C4.44161 13.5717 4.09187 13.2383 3.92695 13.3384C3.79656 13.4176 3.92316 13.6325 4.07812 13.8955L4.08962 13.915C4.15508 14.0261 4.23095 14.1393 4.30017 14.2426C4.4409 14.4525 4.55425 14.6217 4.49754 14.6503C4.42898 14.6849 3.95135 14.3625 3.54885 13.915C3.39349 13.7422 3.24302 13.555 3.10317 13.381V13.381C2.79707 13.0001 2.54204 12.6828 2.39889 12.7204C2.22667 12.7656 2.35695 13.1208 2.54837 13.4626C2.63788 13.6225 2.74317 13.7853 2.83433 13.9262V13.9263C2.97612 14.1454 3.08373 14.3117 3.04471 14.3322C2.99204 14.3597 2.52865 13.9079 2.21391 13.3384C2.02697 13.0002 1.86999 12.6264 1.74291 12.3238C1.60509 11.9956 1.50243 11.7512 1.43484 11.7266C1.19997 11.6411 1.19997 12.12 1.29417 12.8111C1.30646 12.9013 1.32475 12.9959 1.34729 13.0922C2.26079 16.0479 5.067 18.2 8.38712 18.2C12.4483 18.2 15.7404 14.9801 15.7404 11.0081C15.7404 7.22769 12.7582 4.12856 8.96906 3.83841C8.97384 3.66032 9.0668 3.30717 9.0668 3.30717C9.0668 3.30717 9.73571 1.68872 9.77108 1.34288C9.7734 1.31992 9.77618 1.29498 9.77917 1.26842C9.82083 0.894741 9.89835 0.199951 9.30062 0.199951C8.9814 0.199951 8.83297 0.437419 8.6632 0.70901V0.709014C8.59802 0.813277 8.52968 0.92257 8.44734 1.02538C7.85433 1.76594 6.85716 2.69073 6.29174 3.18342C5.09664 4.22478 3.92411 5.08062 3.24025 5.57977L3.24021 5.57981C2.92918 5.80681 2.71927 5.96006 2.6543 6.02337C2.16471 6.50065 0.409282 9.66704 0.409282 9.66704C0.409282 9.66704 -0.158403 10.6829 0.0433761 10.889C0.245155 11.095 0.731746 11.0478 0.731746 11.0478C0.731746 11.0478 7.26873 9.5481 7.85398 9.42984C8.01155 9.39799 8.12278 9.3796 8.20817 9.3655C8.44003 9.32722 8.48166 9.32033 8.74343 9.16061ZM4.12154 7.23345C3.77065 7.56698 3.18871 8.36309 3.18871 8.36309C3.18871 8.36309 4.27025 8.42971 4.86591 7.86352C5.46159 7.29729 5.32512 6.33236 5.32512 6.33236C5.32512 6.33236 4.4724 6.89992 4.12154 7.23345Z" fill="#2C6AC1"/>
</svg>

<svg width="16" height="19" fill="none" xmlns="http://www.w3.org/2000/svg"><path fill-rule="evenodd" clip-rule="evenodd" d="M8.743 9.16c.122-.074.226-.23.31-.403 1.098.449 1.87 1.51 1.87 2.747 0 1.644-1.363 2.976-3.043 2.976-.69 0-1.326-.225-1.836-.603a7.133 7.133 0 0 1-.418-.218c-.175-.096-.29-.16-.362-.15-.21.03-.148.222-.093.398.037.119.073.23.018.275-.056.048-.24-.127-.455-.332-.292-.278-.642-.612-.807-.512-.13.08-.004.295.151.558l.012.019c.065.111.141.224.21.328.14.21.254.379.198.407-.069.035-.547-.287-.95-.735-.155-.173-.305-.36-.445-.534-.306-.38-.561-.698-.704-.66-.172.045-.042.4.15.742.089.16.194.322.285.463.142.22.25.386.21.406-.052.028-.515-.424-.83-.994-.187-.338-.344-.712-.471-1.014-.138-.328-.24-.573-.308-.597-.235-.086-.235.393-.14 1.084.011.09.03.185.052.281.914 2.956 3.72 5.108 7.04 5.108 4.061 0 7.353-3.22 7.353-7.192 0-3.78-2.982-6.88-6.77-7.17.004-.178.097-.53.097-.53s.669-1.62.704-1.965l.008-.075C9.821.895 9.9.2 9.301.2c-.32 0-.468.237-.638.509a3.263 3.263 0 0 1-.216.316c-.593.74-1.59 1.666-2.155 2.158C5.097 4.225 3.924 5.081 3.24 5.58c-.31.227-.52.38-.586.443C2.164 6.501.41 9.667.41 9.667s-.567 1.016-.366 1.222c.202.206.689.159.689.159s6.537-1.5 7.122-1.618a9.24 9.24 0 0 1 .354-.064c.232-.039.274-.046.535-.205ZM4.122 7.234c-.351.334-.933 1.13-.933 1.13s1.081.067 1.677-.5c.596-.566.46-1.53.46-1.53s-.854.567-1.204.9Z" fill="#2C6AC1"/></svg>
